svg/fluentui-system-icons/ic_fluent_panel_left_contract_16_regular.svg

<svg width="16" height="16" viewBox="0 0 16 16" fill="none" xmlns="http://www.w3.org/2000/svg">
<path d="M9.70711 8.50024L10.3536 9.14669C10.5488 9.34195 10.5488 9.65854 10.3536 9.8538C10.1583 10.0491 9.84171 10.0491 9.64645 9.8538L8.14645 8.3538C7.95118 8.15854 7.95118 7.84195 8.14645 7.64669L9.64645 6.14669C9.84171 5.95143 10.1583 5.95143 10.3536 6.14669C10.5488 6.34195 10.5488 6.65854 10.3536 6.8538L9.70711 7.50024H11.4983C11.7744 7.50024 11.9983 7.7241 11.9983 8.00024C11.9983 8.27639 11.7744 8.50024 11.4983 8.50024H9.70711ZM4 2.99902C2.89543 2.99902 2 3.89445 2 4.99902V11.0014C2 12.106 2.89543 13.0014 4 13.0014H12C13.1046 13.0014 14 12.106 14 11.0014V4.99902C14 3.89445 13.1046 2.99902 12 2.99902H4ZM3 4.99902C3 4.44674 3.44772 3.99902 4 3.99902H6.00153L6.00152 12.0014H4C3.44772 12.0014 3 11.5537 3 11.0014V4.99902ZM7.00152 12.0014L7.00153 3.99902H12C12.5523 3.99902 13 4.44674 13 4.99902V11.0014C13 11.5537 12.5523 12.0014 12 12.0014H7.00152Z" fill="#212121"/>
</svg>

<svg xmlns="http://www.w3.org/2000/svg" width="16" height="16"><path d="m9.707 8.5.647.647a.5.5 0 0 1-.708.707l-1.5-1.5a.5.5 0 0 1 0-.707l1.5-1.5a.5.5 0 0 1 .708.707l-.647.646h1.791a.5.5 0 0 1 0 1h-1.79ZM4 3a2 2 0 0 0-2 2v6.002a2 2 0 0 0 2 2h8a2 2 0 0 0 2-2V5a2 2 0 0 0-2-2H4ZM3 5a1 1 0 0 1 1-1h2.002v8.002H4a1 1 0 0 1-1-1V5Zm4.002 7.002V4H12a1 1 0 0 1 1 1v6.002a1 1 0 0 1-1 1H7.002Z"/></svg>
